X: 32872
T: Portlaw, The
R: reel
M: 4/4
K: Adorian
|:G2|cded cAGE|GAGE G2 cd|ecgc ec g2|ed (3Bcd ef g2|
cded cAGE|GAGE G2 cd|eaag eged|cABG A2:|
|:cdef g2 ef|gfgd BG G2|(3Bcd ef gedg|eaag aged|
(3Bcd ef g2 fg|a3f g3e|f3d efed|(3cBA BG A2 A2:|

